X: 17298
T: Hesleyside, The
R: reel
M: 4/4
K: Gmajor
GA|:B2dB eBdB|AGFE D2EF|GFGE DEGB|dBeB A2GA|
B2dB eBdB|AGFE D2EF|GFGE DEGA|1 B2G2 G2:|2 B2G2 G3F||
|:EDEF GFGE|DGBe d2Bd|e2ed BcBA|GABG A2GA|
B2dg bage|dBGA B2BA|GFGE DEGA|1 B2G2 G3F:|2 B2G2 G3||

